X: 10613
T: COLL McBAIN'S REEL
%R: reel
B: W. Hamilton "Universal Tune-Book" Vol. 1 Glasgow 1844 p.61 #3
S: http://imslp.org/wiki/Hamilton's_Universal_Tune-Book_(Various)
Z: 2016 John Chambers <jc:trillian.mit.edu>
M: C|
L: 1/8
K: Gm
%%slurgraces yes
%%graceslurs yes
% - - - - - - - - - - - - - - - - - - - - - - - - -
!p!c |\
(B/c/d) Gd BGdB | (A/B/c) (Fc) AFcA |\
(B/c/d) (Gd) BGdG | (^F/G/A) D>F {F}G2G :|\
!f!A |\
TB2Bf B/B/B fd | c>dcB ABcA |
Ggga bag^f | (g/a/b) a^f Tg2ga |\
g/a/b (=fd) (B/c/d/e/) fd | c>dcB A>BcA |\
Bdg^f gdc_e | dBcA {^F}G2G, |]
% - - - - - - - - - - - - - - - - - - - - - - - - -

%%sep 1 1 500
%%sep 1 1 500

